public/assets/logos/python.svg

<svg width="88" height="89" viewBox="0 0 88 89" fill="none" xmlns="http://www.w3.org/2000/svg">
    <path d="M43.3723 5.31223C40.1427 5.32727 37.0586 5.60342 34.3447 6.08484C26.3504 7.50077 24.899 10.4644 24.899 15.93V23.1483H43.7906V25.5544H24.899H17.809C12.3185 25.5544 7.51093 28.8628 6.00718 35.1567C4.27261 42.371 4.19567 46.8728 6.00718 54.4055C7.35007 60.0126 10.5571 64.0078 16.0476 64.0078H22.543V55.3547C22.543 49.1034 27.938 43.5891 34.3447 43.5891H53.2145C58.4671 43.5891 62.6603 39.2532 62.6603 33.9648V15.93C62.6603 10.7972 58.3412 6.94148 53.2145 6.08484C49.9692 5.54323 46.6019 5.29719 43.3723 5.31223ZM33.1558 11.1178C35.1072 11.1178 36.7007 12.7415 36.7007 14.7379C36.7007 16.7274 35.1072 18.3361 33.1558 18.3361C31.1974 18.3361 29.6108 16.7274 29.6108 14.7379C29.6108 12.7415 31.1974 11.1178 33.1558 11.1178Z" fill="url(#paint0_linear_15_28)"/>
    <path d="M65.0164 25.5544V33.9647C65.0164 40.4852 59.5023 45.9731 53.2145 45.9731H34.3448C29.1761 45.9731 24.8989 50.4082 24.8989 55.5976V73.6323C24.8989 78.7651 29.3509 81.7842 34.3448 83.2567C40.3249 85.0196 46.0594 85.3381 53.2145 83.2567C57.9706 81.8762 62.6604 79.0979 62.6604 73.6323V66.414H43.7907V64.0079H62.6604H72.1063C77.5968 64.0079 79.6427 60.1685 81.5522 54.4056C83.5245 48.4728 83.4406 42.7674 81.5522 35.1568C80.1952 29.6771 77.6038 25.5544 72.1063 25.5544H65.0164ZM54.4035 71.2263C56.3619 71.2263 57.9484 72.8349 57.9484 74.8244C57.9484 76.8208 56.3619 78.4445 54.4035 78.4445C52.4522 78.4445 50.8585 76.8208 50.8585 74.8244C50.8585 72.8349 52.4522 71.2263 54.4035 71.2263Z" fill="url(#paint1_linear_15_28)"/>
    <defs>
        <linearGradient id="paint0_linear_15_28" x1="4.67725" y1="5.31158" x2="48.3325" y2="42.4176" gradientUnits="userSpaceOnUse">
            <stop stop-color="#5A9FD4"/>
            <stop offset="1" stop-color="#306998"/>
        </linearGradient>
        <linearGradient id="paint1_linear_15_28" x1="53.9495" y1="74.2175" x2="38.2684" y2="52.2993" gradientUnits="userSpaceOnUse">
            <stop stop-color="#FFD43B"/>
            <stop offset="1" stop-color="#FFE873"/>
        </linearGradient>
    </defs>
</svg>

<svg width="88" height="89" viewBox="0 0 88 89" fill="none" xmlns="http://www.w3.org/2000/svg"><path d="M43.372 5.312c-3.23.015-6.313.291-9.027.773-7.995 1.416-9.446 4.38-9.446 9.845v7.218h18.892v2.406H17.809c-5.49 0-10.298 3.309-11.802 9.603-1.734 7.214-1.811 11.716 0 19.249 1.343 5.607 4.55 9.602 10.04 9.602h6.496v-8.653c0-6.252 5.395-11.766 11.802-11.766h18.87c5.252 0 9.445-4.336 9.445-9.624V15.93c0-5.133-4.319-8.989-9.445-9.845a58.777 58.777 0 0 0-9.843-.773Zm-10.216 5.806c1.951 0 3.545 1.623 3.545 3.62 0 1.99-1.594 3.598-3.545 3.598-1.959 0-3.545-1.609-3.545-3.598 0-1.996 1.586-3.62 3.545-3.62Z" fill="url(#a)"/><path d="M65.016 25.554v8.41c0 6.521-5.514 12.01-11.802 12.01h-18.87c-5.168 0-9.445 4.434-9.445 9.624v18.034c0 5.133 4.452 8.152 9.446 9.625 5.98 1.763 11.714 2.081 18.87 0 4.756-1.38 9.445-4.16 9.445-9.625v-7.218H43.79v-2.406H72.107c5.49 0 7.537-3.84 9.446-9.602 1.972-5.933 1.889-11.639 0-19.25-1.357-5.479-3.948-9.602-9.446-9.602h-7.09ZM54.403 71.226c1.959 0 3.545 1.609 3.545 3.598 0 1.997-1.586 3.62-3.544 3.62-1.952 0-3.546-1.623-3.546-3.62 0-1.99 1.594-3.598 3.546-3.598Z" fill="url(#b)"/><defs><linearGradient id="a" x1="4.677" y1="5.312" x2="48.333" y2="42.418" gradientUnits="userSpaceOnUse"><stop stop-color="#5A9FD4"/><stop offset="1" stop-color="#306998"/></linearGradient><linearGradient id="b" x1="53.95" y1="74.218" x2="38.268" y2="52.299" gradientUnits="userSpaceOnUse"><stop stop-color="#FFD43B"/><stop offset="1" stop-color="#FFE873"/></linearGradient></defs></svg>
